X:1
T:Title
%%score { 1 | 2 }
L:1/8
M:3/4
K:D
V:1 treble nm="Grand Piano"
V:2 bass 
V:1
 z2 z2[Q:1/4=100] [DF]>[EG] | [FA]2 [Fd]2 [Ac]>[GB] | [GB]2 [DFA]2 [DA]>[A,DA] | %3
 [B,DG]3 [B,E^G] [A,EA]>[A,CE] |[M:2/4] [A,DF]4 |[M:1/4] [A,DF]>[A,EG] | %6
[M:3/4] [DFA]2 [Fd]2 [Ac]>[GB] | [GB]2 [FA]2 [FA]>[Fd] | c3 d B>[CA] |[M:2/4] [CA]4 | %10
[M:1/4] [FA]>[FB] |[M:3/4] [GA]2 [Ge]2 [EGd]>[Gc] | [Fd]2 [FA]2 [DA]>[FB] | [GA]2 [Ge]2 [Gd]>[Gc] | %14
[M:2/4] [Fd]4 |[M:1/4] [DF]>[EG] |[M:3/4] [FA]2 [Fd]2 [Ge]>[Fd] | [B,Ac]2 [DGB]2 [B,=Fc]>[B,Fd] | %18
 [A,FA]3 [DA] [CA]>[EA] |[M:2/4] [DA]4 |[M:1/4] [DF]>[EG] |[M:3/4] [FA]2 [FB]2 [Ge]>[Fd] | %22
 [B,Ac]2 [DGB]2 [B,=Fc]>[B,Fd] | [FA]3 [Ed] [Ed]>[Gc] |[M:2/4] [Fd]4 |] %25
V:2
 z2 z2 [D,A,]>[D,A,] | [D,D]2 [D,A,]2 [D,A,]>[D,A,] | D2 D,2 F,>F, | E,3 D, C,>A,, |[M:2/4] D,4 | %5
[M:1/4] D,>D, |[M:3/4] D,2 [D,A,]2 [D,A,]>[D,A,] | [D,D]2 [D,D]2 [D,D]>[D,A,] | %8
 [E,A,E]3 [E,B,D] [E,^G,D]>[A,,A,] |[M:2/4] [A,,A,]4 |[M:1/4] [D,A,]>[D,A,] | %11
[M:3/4] [C,A,]2 [A,,A,]2 A,,>[A,,A,] | [D,A,]2 [D,D]2 [D,F,]>[D,A,] | %13
 [E,C]2 [A,,C]2 [A,,B,]>[A,,A,] |[M:2/4] [D,A,]4 |[M:1/4] [D,A,]>[D,A,] | %16
[M:3/4] [D,D]2 [D,A,]2 [C,A,]>[D,A,] | G,,2 G,,2 ^G,,>G,, | A,,3 [A,,F,] [A,,E,]>[A,,G,] | %19
[M:2/4] [D,F,]4 |[M:1/4] [D,A,]>[D,A,] |[M:3/4] [D,D]2 [D,A,]2 [C,A,]>[D,A,] | G,,2 G,,2 ^G,,>G,, | %23
 [A,,A,]3 [A,,A,] [A,,A,]>[A,,A,] |[M:2/4] [D,A,]4 |] %25

